packages/icons/src/components/Icon/assets/small-solid/doc.svg

<svg width="16" height="16" viewBox="0 0 16 16" fill="none" xmlns="http://www.w3.org/2000/svg">
<path fill-rule="evenodd" clip-rule="evenodd" d="M3.3125 15H12.9375C13.6623 15 14.25 14.4124 14.25 13.6875L14.25 2.31251C14.25 1.58763 13.6628 1 12.9379 1.00001L3.3125 1C2.58763 1 2 1.58763 2 2.3125L2 13.6875C2 14.4124 2.58763 15 3.3125 15ZM4.84372 4.0625C4.84372 3.70006 5.13754 3.40625 5.49997 3.40625H8.53057C8.89301 3.40625 9.18682 3.70006 9.18682 4.0625C9.18682 4.42494 8.89301 4.71875 8.53057 4.71875H5.49997C5.13754 4.71875 4.84372 4.42494 4.84372 4.0625ZM5.49997 6.03125C5.13754 6.03125 4.84372 6.32506 4.84372 6.6875C4.84372 7.04994 5.13754 7.34375 5.49997 7.34375H10.2851C10.6476 7.34375 10.9414 7.04994 10.9414 6.6875C10.9414 6.32506 10.6476 6.03125 10.2851 6.03125H5.49997ZM4.84372 9.3125C4.84372 8.95006 5.13754 8.65625 5.49997 8.65625H10.2851C10.6476 8.65625 10.9414 8.95006 10.9414 9.3125C10.9414 9.67494 10.6476 9.96875 10.2851 9.96875H5.49997C5.13754 9.96875 4.84372 9.67494 4.84372 9.3125ZM5.49997 11.2812C5.13754 11.2812 4.84372 11.5751 4.84372 11.9375C4.84372 12.2999 5.13754 12.5938 5.49997 12.5938H7.89255C8.25499 12.5938 8.5488 12.2999 8.5488 11.9375C8.5488 11.5751 8.25499 11.2812 7.89255 11.2812H5.49997Z" fill="#727683"/>
</svg>

<svg xmlns="http://www.w3.org/2000/svg" width="16" height="16" fill="none" viewBox="0 0 16 16">
    <path fill="#727683" fill-rule="evenodd" d="M3.313 15h9.625c.724 0 1.312-.588 1.312-1.312V2.313c0-.725-.587-1.313-1.312-1.313H3.313C2.588 1 2 1.588 2 2.313v11.375C2 14.412 2.588 15 3.313 15m1.53-10.937c0-.363.295-.657.657-.657h3.03a.656.656 0 1 1 0 1.313H5.5a.656.656 0 0 1-.656-.657M5.5 6.03a.656.656 0 0 0 0 1.313h4.785a.656.656 0 1 0 0-1.313zm-.656 3.282c0-.363.294-.657.656-.657h4.785a.656.656 0 1 1 0 1.313H5.5a.656.656 0 0 1-.656-.656M5.5 11.28a.656.656 0 0 0 0 1.313h2.393a.656.656 0 0 0 0-1.313z" clip-rule="evenodd"/>
</svg>
